app/images/icons/twitter-icon.svg

<svg width="39" height="39" viewBox="0 0 39 39" fill="none" xmlns="http://www.w3.org/2000/svg">
<circle cx="19.5" cy="19.5" r="19.5" fill="#ECECEC"/>
<path d="M29.5263 12.9809C28.7715 13.3065 27.95 13.5408 27.1039 13.6321C27.9824 13.1102 28.6402 12.2857 28.954 11.3133C28.1297 11.8037 27.2266 12.1475 26.2849 12.3296C25.8913 11.9088 25.4153 11.5736 24.8865 11.3449C24.3577 11.1161 23.7874 10.9987 23.2113 11C20.8802 11 19.0054 12.8896 19.0054 15.2084C19.0054 15.534 19.0448 15.8596 19.109 16.1729C15.6184 15.9904 12.5053 14.3228 10.4357 11.7697C10.0586 12.4138 9.86095 13.1472 9.86338 13.8936C9.86338 15.3539 10.6059 16.6416 11.7382 17.3989C11.0709 17.3726 10.4193 17.1892 9.83625 16.8636V16.9154C9.83625 18.9604 11.2818 20.6551 13.2084 21.0449C12.8466 21.1388 12.4745 21.1869 12.1008 21.1879C11.827 21.1879 11.5679 21.1608 11.3065 21.1238C11.8393 22.7914 13.3909 24.0026 15.2386 24.042C13.793 25.1743 11.9824 25.8403 10.0163 25.8403C9.66357 25.8403 9.33795 25.828 9 25.7885C10.8649 26.9849 13.0776 27.6756 15.4606 27.6756C23.1965 27.6756 27.4295 21.2669 27.4295 15.7042C27.4295 15.5217 27.4295 15.3391 27.4172 15.1566C28.2362 14.5571 28.954 13.8146 29.5263 12.9809Z" fill="#31352B"/>
</svg>

<svg xmlns="http://www.w3.org/2000/svg" fill="none" viewBox="0 0 39 39"><circle cx="19.5" cy="19.5" r="19.5" fill="#ECECEC"/><path fill="#31352B" d="M29.526 12.98a8.437 8.437 0 0 1-2.422.652 4.196 4.196 0 0 0 1.85-2.319 8.304 8.304 0 0 1-2.67 1.017A4.195 4.195 0 0 0 23.212 11a4.205 4.205 0 0 0-4.206 4.208c0 .326.04.652.104.965a11.954 11.954 0 0 1-8.673-4.403 4.177 4.177 0 0 0-.573 2.124c0 1.46.743 2.748 1.875 3.505a4.244 4.244 0 0 1-1.902-.535v.051a4.207 4.207 0 0 0 3.372 4.13 4.456 4.456 0 0 1-1.107.143c-.274 0-.533-.027-.795-.064a4.214 4.214 0 0 0 3.933 2.918 8.43 8.43 0 0 1-5.223 1.798c-.352 0-.678-.012-1.016-.052a11.911 11.911 0 0 0 6.46 1.888c7.736 0 11.97-6.41 11.97-11.972 0-.182 0-.365-.013-.547a9.062 9.062 0 0 0 2.11-2.176z"/></svg>
